build/category/USBSolid.svg

<svg xmlns="http://www.w3.org/2000/svg" fill="none" viewBox="0 0 24 24" focusable="false"><path d="M0 0H24V24H0z" transform="matrix(1 0 0 -1 0 24)"/><path fill="#74767B" fill-rule="evenodd" d="M12.1032 5.65269C11.8298 5.92605 11.8298 6.36927 12.1032 6.64264L17.4121 11.9515C17.6855 12.2249 18.1287 12.2249 18.4021 11.9515L21.3875 8.9661C21.8952 8.45842 21.8952 7.6353 21.3875 7.12762L16.9271 2.66726C16.4194 2.15958 15.5963 2.15958 15.0886 2.66726L12.1032 5.65269ZM15.2245 6.08113C14.9707 6.33497 14.9707 6.74652 15.2245 7.00036C15.4784 7.25421 15.8899 7.25421 16.1438 7.00036L16.8606 6.28351C17.1145 6.02967 17.1145 5.61811 16.8606 5.36427C16.6068 5.11043 16.1952 5.11043 15.9414 5.36427L15.2245 6.08113ZM10.7748 7.14873C10.2671 6.64105 9.444 6.64104 8.93632 7.14873L2.88454 13.2005C1.71297 14.3721 1.71297 16.2716 2.88454 17.4431L6.61173 21.1703C7.78331 22.3419 9.6828 22.3419 10.8544 21.1703L16.9062 15.1186C17.4138 14.6109 17.4138 13.7878 16.9062 13.2801L10.7748 7.14873ZM17.0544 8.83027C16.8005 8.57643 16.8005 8.16488 17.0544 7.91104L17.7712 7.19418C18.025 6.94034 18.4366 6.94034 18.6904 7.19418C18.9443 7.44802 18.9443 7.85958 18.6904 8.11342L17.9736 8.83027C17.7197 9.08412 17.3082 9.08412 17.0544 8.83027Z"/></svg>

<svg xmlns="http://www.w3.org/2000/svg" fill="none" viewBox="0 0 24 24" focusable="false"><path fill="#74767B" fill-rule="evenodd" d="M12.1 5.65c-.27.27-.27.71 0 .99l5.31 5.31c.27.27.71.27.99 0l2.98-2.99c.51-.51.51-1.33 0-1.84l-4.46-4.46c-.51-.51-1.33-.51-1.84 0zm3.12.43c-.25.25-.25.66 0 .92.25.25.67.25.92 0l.72-.72c.25-.26.25-.67 0-.92a.66.66 0 0 0-.92 0zM8.93 7.14c.51-.5 1.33-.5 1.84 0l6.13 6.14c.51.5.51 1.33 0 1.83l-6.05 6.06a3 3 0 0 1-4.24 0l-3.73-3.73a3 3 0 0 1 0-4.24zm8.12 1.69a.66.66 0 0 1 0-.92l.72-.72c.25-.25.66-.25.92 0 .25.25.25.66 0 .92l-.72.72c-.26.25-.67.25-.92 0"/></svg>
